X:1
T:Mighty Army of the Young
T:Mighty Army of the Young
T:A. F. Myers
T:John Roland Colgan, 1891
T:Public Domain Courtesy of the Cyber Hymnal™
T:Public Domain Courtesy of the Cyber Hymnal™
C:A. F. Myers
Z:Public Domain
Z:Courtesy of the Cyber Hymnal™
%%score ( 1 2 ) ( 3 4 )
L:1/8
Q:1/4=95
M:4/4
K:Ab
V:1 treble 
V:2 treble 
V:3 bass 
V:4 bass 
V:1
 [CE][Ec][DB][CA] [DA][DG] [DG]2 | E[Ed][Ec][DB] [DB][CA] [CA]2 | [CE][Ec][EB][EA] [DA][DG] [DG]2 | %3
w: 1.~Might- y ar- my of the young,|Lift your voice in cheer- ful song,|Send the wel- come word a- long,|
w: 2.~Voice of youth so glad and free,|Sing your song of vic- to- ry;|Sing to all on land and sea,|
w: 3.~Je- sus lives, O bless- èd words!|King of kings, and Lord of lords!|Lift the cross and sheathe the swords,|
 [DF]2 [DG]2 [CA]4 | [EG][EG][EG][DF] [DF][CE] [CE]2 | [DF][DF][DG][DG] [CA][CA] [EB]2 | %6
w: Je- sus lives!|Once He died for you and me,|Bore our sins up- on the tree,|
w: Je- sus lives!|Light for you and all man- kind,|Sight of all by sin made blind,|
w: Je- sus lives!|See, He breaks the pri- son wall,|Throws a- side the dread- ful pall,|
 [Ec][Ec][DB][DB] [CA][CA] E2 | [DF]2 [DG]2 [CA]4 ||"^Refrain" [Ec][Ec][Ec][Ec] [Ec][Ec][Ec][Ec] | %9
w: Now He lives to make us free,|Je- sus lives!|Wait not till the sha- dows length- en,|
w: Life in Je- sus al may find,|Je- sus lives!||
w: Con- quers death at once for all,|Je- sus lives!||
 [Ec][Ec][Ec][Ec] [Ed]4 | [Ed][Ed][Ed][Ed] [Gd][Gd][Gd][Gd] | [Gd][Gd][Ee][Ed] [Ec]4 | %12
w: till you old- er grow,|Ral- ly now and sing for Je- sus,|ev- ery- where you go;|
w: |||
w: |||
 [Ec][DB][CA]E [DF][DA] [CE]2 | [Ec][DB][CA]E [DF][DA] [CE]2 | %14
w: Lift your joy- ful voic- es high,|Ring- ing clear thro’ earth and sky,|
w: ||
w: ||
 [EA][EA][EB][EB] [Ec][_Gc] !fermata![Fd]2!f! | [DF]2"^riten." [DG]2 [CA]4 |] %16
w: Let the bless- èd tid- ings fly,|Je- sus lives!|
w: ||
w: ||
V:2
 x8 | E x7 | x8 | x8 | x8 | x8 | x6 E2 | x8 || x8 | x8 | x8 | x8 | x3 E x4 | x3 E x4 | x8 | x8 |] %16
V:3
 [A,,A,][A,,A,][A,,E,][A,,E,] [B,,E,][B,,E,] [E,B,]2 | [E,G,][E,B,][E,A,][E,G,] A,A, A,2 | %2
w: ~ ~ ~ ~ ~ ~ ~|~ ~ ~ ~ ~ ~ ~|
 [A,,A,][A,,A,][B,,G,][C,A,] [E,B,][E,B,] [E,B,]2 | [E,B,]2 E,2 [A,,E,]4 | %4
w: ~ ~ ~ ~ ~ ~ ~|~ ~ ~|
 E,[E,G,][E,B,][E,G,] [A,,A,][A,,A,] [A,,A,]2 | [D,A,][D,A,]E,[E,B,] [F,A,][F,A,] [E,G,]2 | %6
w: ~ ~ ~ ~ ~ ~ ~|~ ~ ~ ~ ~ ~ ~|
 A,A,[E,G,][E,G,] [F,A,][F,A,] [C,A,]2 | [D,A,]2 E,2 [A,,E,]4 || A,4 A,4 | A,A,A,A, [E,G,]4 | %10
w: ~ ~ ~ ~ ~ ~ ~|~ ~ ~|Wait not,|wait not, ~ ~ ~|
 B,4 B,4 | [E,B,][E,B,][E,G,][G,B,] A,4 | [A,,A,][A,,A,][A,,A,][C,A,] [D,A,][F,A,] A,2 | %13
w: ~ ~|Sing for Je- sus, *||
 [A,,A,][A,,A,][A,,A,][C,A,] [D,A,][F,A,] A,2 | [C,A,][C,A,][E,G,][E,G,] A,A, !fermata![D,A,]2 | %15
w: ||
 [D,A,]2 E,2 [A,,E,]4 |] %16
w: |
V:4
 x8 | x4 A,A, A,2 | x8 | x2 E,2 x4 | E, x7 | x2 E, x5 | A,A, x6 | x2 E,2 x4 || A,,2 C,2 E,2 A,2 | %9
 A,A,A,A, x4 | E,2 G,2 B,2 E,2 | x4 A,4 | x6 A,2 | x6 A,2 | x4 A,A, x2 | x2 E,2 x4 |] %16

